X: 35150
T: Rond De Saint Vincent
R: polka
M: 2/4
K: Aminor
E/E/E/|:AA GA/B/|c/A/B A/E/E/E/|AA GA/B/|c/A/B A/>A/A/A/:|
|:cc BA/A/|B/A/G/F/ E/>E/E/E/|AA G/G/A/B/|1 c/A/B A/>A/A/A/:|2 c/A/B A/||

